src/icons/command-winrm.svg

<svg enable-background="new 0 0 14 11" viewBox="0 0 14 11" xmlns="http://www.w3.org/2000/svg"><path d="m3 0c-.2 0-.5 0-.7.2s-.3.4-.3.7c-.7 2.9-1.3 5.8-2 8.8 0 .3 0 .6.2.9s.5.4.9.4h9.9c.3 0 .5-.1.7-.3s.3-.4.3-.6c.6-2.9 1.3-5.9 1.9-8.8.1-.3.1-.7-.1-.9s-.5-.4-.9-.4zm0 1h9.9v.1c-.6 2.9-1.3 5.9-1.9 8.8v.1h-9.9c-.1 0-.1 0-.1 0s0 0 0-.1c.6-3 1.3-5.9 2-8.9-.1 0 0 0 0 0zm1.8.5c-.3 0-.6.2-.7.4s-.1.6.1.9l2.4 2.6-3.8 2.7c-.2.2-.3.5-.3.7s.2.5.5.6.5.1.8-.1l4.5-3.3c.2-.1.3-.3.3-.5s-.1-.4-.2-.6l-3-3.2c-.2-.1-.4-.2-.6-.2zm1.9 6.5c-.2 0-.5.1-.6.4-.1.2-.1.5 0 .7s.4.4.7.4h2c.3 0 .5-.1.7-.4.1-.2.1-.5 0-.8-.2-.2-.5-.3-.8-.3z" fill="#4d5969"/></svg>

<?xml version="1.0" encoding="utf-8"?>
<!-- Generator: Adobe Illustrator 20.1.0, SVG Export Plug-In . SVG Version: 6.00 Build 0)  -->
<svg version="1.1" id="Layer_1" xmlns="http://www.w3.org/2000/svg" xmlns:xlink="http://www.w3.org/1999/xlink" x="0px" y="0px"
	 viewBox="0 0 14 11" style="enable-background:new 0 0 14 11;" xml:space="preserve">
<style type="text/css">
	.st0{fill:#4D5969;}
</style>
<title>HDL/Icon/Standard/command/winrm</title>
<desc>Created with Sketch.</desc>
<g id="Colors">
	<g id="Command-Icons" transform="translate(-122.000000, -926.000000)">
		<g id="HDL_x2F_Icon_x2F_Standard_x2F_command_x2F_winrm" transform="translate(122.000000, 926.000000)">
			<path id="Shape" class="st0" d="M3,0C2.8,0,2.5,0,2.3,0.2C2.1,0.4,2,0.6,2,0.9C1.3,3.8,0.7,6.7,0,9.7v0C0,10,0,10.3,0.2,10.6
				C0.4,10.9,0.7,11,1.1,11H11c0.3,0,0.5-0.1,0.7-0.3s0.3-0.4,0.3-0.6v0c0.6-2.9,1.3-5.9,1.9-8.8C14,1,14,0.6,13.8,0.4
				S13.3,0,12.9,0H3z M3,1h9.9c0,0,0,0,0,0c0,0,0,0,0,0.1c-0.6,2.9-1.3,5.9-1.9,8.8l0,0c0,0.1,0,0.1,0,0.1c0,0,0,0,0,0H1.1
				C1,10,1,10,1,10c0,0,0,0,0-0.1v0C1.6,6.9,2.3,4,3,1C2.9,1,3,1,3,1C3,1,3,1,3,1z M4.8,1.5c-0.3,0-0.6,0.2-0.7,0.4S4,2.5,4.2,2.8
				l2.4,2.6L2.8,8.1C2.6,8.3,2.5,8.6,2.5,8.8s0.2,0.5,0.5,0.6c0.3,0.1,0.5,0.1,0.8-0.1l4.5-3.3c0.2-0.1,0.3-0.3,0.3-0.5
				c0-0.2-0.1-0.4-0.2-0.6l-3-3.2C5.2,1.6,5,1.5,4.8,1.5z M6.7,8C6.5,8,6.2,8.1,6.1,8.4C6,8.6,6,8.9,6.1,9.1
				c0.1,0.2,0.4,0.4,0.7,0.4h2c0.3,0,0.5-0.1,0.7-0.4c0.1-0.2,0.1-0.5,0-0.8C9.3,8.1,9,8,8.7,8H6.7z"/>
		</g>
	</g>
</g>
</svg>
